assets/imgs/Get-Instant-Responses-and-Feedback.svg

<svg width="182" height="273" viewBox="0 0 182 273" fill="none" xmlns="http://www.w3.org/2000/svg">
<rect x="40" y="2" width="137" height="268" rx="22" fill="white" stroke="#DDE1E6" stroke-width="4"/>
<path d="M75 2H141V9C141 12.866 137.866 16 134 16H82C78.134 16 75 12.866 75 9V2Z" fill="#DDE1E6"/>
<g filter="url(#filter0_d_457_1374)">
<rect width="96" height="48" rx="14" transform="matrix(-1 0 0 1 153 76)" fill="white"/>
</g>
<g filter="url(#filter1_d_457_1374)">
<rect width="96" height="23" rx="10" transform="matrix(-1 0 0 1 154 161)" fill="white"/>
</g>
<rect width="66" height="15" rx="7.5" transform="matrix(-1 0 0 1 144 200)" fill="#F2F4F8"/>
<g filter="url(#filter2_d_457_1374)">
<circle r="18.5" transform="matrix(-1 0 0 1 144.5 75.5)" fill="white"/>
</g>
<g filter="url(#filter3_d_457_1374)">
<circle r="5.5" transform="matrix(-1 0 0 1 144.5 67.5)" fill="#19E29E" fill-opacity="0.4" shape-rendering="crispEdges"/>
</g>
<g filter="url(#filter4_d_457_1374)">
<ellipse rx="9.5" ry="5.5" transform="matrix(-1 0 0 1 144.5 81.5)" fill="#19E29E" fill-opacity="0.4" shape-rendering="crispEdges"/>
</g>
<g filter="url(#filter5_d_457_1374)">
<circle r="18.5" transform="matrix(-1 0 0 1 35.5 172.5)" fill="white"/>
</g>
<g filter="url(#filter6_d_457_1374)">
<circle r="5.5" transform="matrix(-1 0 0 1 35.5 164.5)" fill="#04CCB3" fill-opacity="0.3" shape-rendering="crispEdges"/>
</g>
<g filter="url(#filter7_d_457_1374)">
<ellipse rx="9.5" ry="5.5" transform="matrix(-1 0 0 1 35.5 178.5)" fill="#04CCB3" fill-opacity="0.3" shape-rendering="crispEdges"/>
</g>
<g filter="url(#filter8_d_457_1374)">
<rect x="52" y="221" width="113" height="29" rx="14.5" fill="white"/>
</g>
<path d="M84.7578 240V232.494H87.4824V231.545H80.9785V232.494H83.7031V240H84.7578ZM88.7598 242.285C89.8789 242.285 90.3828 241.852 90.9219 240.387L93.3887 233.684H92.3164L90.5879 238.881H90.4941L88.7598 233.684H87.6699L90.0078 240.006L89.8906 240.381C89.627 241.143 89.3105 241.418 88.7305 241.418C88.5898 241.418 88.4316 241.412 88.3086 241.389V242.25C88.4492 242.273 88.625 242.285 88.7598 242.285ZM97.8125 233.572C96.9512 233.572 96.1953 234.012 95.791 234.738H95.6973V233.684H94.7363V242.109H95.7441V239.051H95.8379C96.1836 239.719 96.9102 240.111 97.8125 240.111C99.418 240.111 100.467 238.816 100.467 236.842C100.467 234.855 99.4238 233.572 97.8125 233.572ZM97.5723 239.203C96.4355 239.203 95.7148 238.289 95.7148 236.842C95.7148 235.389 96.4355 234.48 97.5781 234.48C98.7324 234.48 99.4238 235.365 99.4238 236.842C99.4238 238.318 98.7324 239.203 97.5723 239.203ZM104.568 234.463C105.57 234.463 106.238 235.201 106.262 236.32H102.781C102.857 235.201 103.561 234.463 104.568 234.463ZM106.232 238.365C105.969 238.922 105.418 239.221 104.604 239.221C103.531 239.221 102.834 238.43 102.781 237.182V237.135H107.322V236.748C107.322 234.785 106.285 233.572 104.58 233.572C102.846 233.572 101.732 234.861 101.732 236.848C101.732 238.846 102.828 240.111 104.58 240.111C105.963 240.111 106.936 239.449 107.24 238.365H106.232ZM112.35 240H113.357V236.262C113.357 235.195 113.979 234.48 115.109 234.48C116.064 234.48 116.568 235.037 116.568 236.156V240H117.576V235.91C117.576 234.428 116.732 233.572 115.396 233.572C114.43 233.572 113.768 233.982 113.451 234.68H113.357V231.176H112.35V240ZM121.936 234.463C122.938 234.463 123.605 235.201 123.629 236.32H120.148C120.225 235.201 120.928 234.463 121.936 234.463ZM123.6 238.365C123.336 238.922 122.785 239.221 121.971 239.221C120.898 239.221 120.201 238.43 120.148 237.182V237.135H124.689V236.748C124.689 234.785 123.652 233.572 121.947 233.572C120.213 233.572 119.1 234.861 119.1 236.848C119.1 238.846 120.195 240.111 121.947 240.111C123.33 240.111 124.303 239.449 124.607 238.365H123.6ZM126.271 240H127.279V236.086C127.279 235.195 127.977 234.551 128.938 234.551C129.137 234.551 129.5 234.586 129.582 234.609V233.602C129.453 233.584 129.242 233.572 129.078 233.572C128.24 233.572 127.514 234.006 127.326 234.621H127.232V233.684H126.271V240ZM133.186 234.463C134.188 234.463 134.855 235.201 134.879 236.32H131.398C131.475 235.201 132.178 234.463 133.186 234.463ZM134.85 238.365C134.586 238.922 134.035 239.221 133.221 239.221C132.148 239.221 131.451 238.43 131.398 237.182V237.135H135.939V236.748C135.939 234.785 134.902 233.572 133.197 233.572C131.463 233.572 130.35 234.861 130.35 236.848C130.35 238.846 131.445 240.111 133.197 240.111C134.58 240.111 135.553 239.449 135.857 238.365H134.85Z" fill="#DDE1E6"/>
<path d="M162.334 53.5L157.75 58.0833L155.667 56" stroke="#19E29E" stroke-width="0.833333" stroke-linecap="round" stroke-linejoin="round"/>
<path d="M165.667 53.5L161.083 58.0833L159 56" stroke="#19E29E" stroke-width="0.833333" stroke-linecap="round" stroke-linejoin="round"/>
<defs>
<filter id="filter0_d_457_1374" x="40" y="65" width="130" height="82" filterUnits="userSpaceOnUse" color-interpolation-filters="sRGB">
<feFlood flood-opacity="0" result="BackgroundImageFix"/>
<feColorMatrix in="SourceAlpha" type="matrix" values="0 0 0 0 0 0 0 0 0 0 0 0 0 0 0 0 0 0 127 0" result="hardAlpha"/>
<feMorphology radius="2" operator="dilate" in="SourceAlpha" result="effect1_dropShadow_457_1374"/>
<feOffset dy="6"/>
<feGaussianBlur stdDeviation="7.5"/>
<feComposite in2="hardAlpha" operator="out"/>
<feColorMatrix type="matrix" values="0 0 0 0 0.427451 0 0 0 0 0.552941 0 0 0 0 0.678431 0 0 0 0.15 0"/>
<feBlend mode="normal" in2="BackgroundImageFix" result="effect1_dropShadow_457_1374"/>
<feBlend mode="normal" in="SourceGraphic" in2="effect1_dropShadow_457_1374" result="shape"/>
</filter>
<filter id="filter1_d_457_1374" x="41" y="150" width="130" height="57" filterUnits="userSpaceOnUse" color-interpolation-filters="sRGB">
<feFlood flood-opacity="0" result="BackgroundImageFix"/>
<feColorMatrix in="SourceAlpha" type="matrix" values="0 0 0 0 0 0 0 0 0 0 0 0 0 0 0 0 0 0 127 0" result="hardAlpha"/>
<feMorphology radius="2" operator="dilate" in="SourceAlpha" result="effect1_dropShadow_457_1374"/>
<feOffset dy="6"/>
<feGaussianBlur stdDeviation="7.5"/>
<feComposite in2="hardAlpha" operator="out"/>
<feColorMatrix type="matrix" values="0 0 0 0 0.427451 0 0 0 0 0.552941 0 0 0 0 0.678431 0 0 0 0.15 0"/>
<feBlend mode="normal" in2="BackgroundImageFix" result="effect1_dropShadow_457_1374"/>
<feBlend mode="normal" in="SourceGraphic" in2="effect1_dropShadow_457_1374" result="shape"/>
</filter>
<filter id="filter2_d_457_1374" x="109" y="46" width="71" height="71" filterUnits="userSpaceOnUse" color-interpolation-filters="sRGB">
<feFlood flood-opacity="0" result="BackgroundImageFix"/>
<feColorMatrix in="SourceAlpha" type="matrix" values="0 0 0 0 0 0 0 0 0 0 0 0 0 0 0 0 0 0 127 0" result="hardAlpha"/>
<feMorphology radius="2" operator="dilate" in="SourceAlpha" result="effect1_dropShadow_457_1374"/>
<feOffset dy="6"/>
<feGaussianBlur stdDeviation="7.5"/>
<feComposite in2="hardAlpha" operator="out"/>
<feColorMatrix type="matrix" values="0 0 0 0 0.427451 0 0 0 0 0.552941 0 0 0 0 0.678431 0 0 0 0.15 0"/>
<feBlend mode="normal" in2="BackgroundImageFix" result="effect1_dropShadow_457_1374"/>
<feBlend mode="normal" in="SourceGraphic" in2="effect1_dropShadow_457_1374" result="shape"/>
</filter>
<filter id="filter3_d_457_1374" x="122" y="51" width="45" height="45" filterUnits="userSpaceOnUse" color-interpolation-filters="sRGB">
<feFlood flood-opacity="0" result="BackgroundImageFix"/>
<feColorMatrix in="SourceAlpha" type="matrix" values="0 0 0 0 0 0 0 0 0 0 0 0 0 0 0 0 0 0 127 0" result="hardAlpha"/>
<feMorphology radius="2" operator="dilate" in="SourceAlpha" result="effect1_dropShadow_457_1374"/>
<feOffset dy="6"/>
<feGaussianBlur stdDeviation="7.5"/>
<feComposite in2="hardAlpha" operator="out"/>
<feColorMatrix type="matrix" values="0 0 0 0 0.427451 0 0 0 0 0.552941 0 0 0 0 0.678431 0 0 0 0.15 0"/>
<feBlend mode="normal" in2="BackgroundImageFix" result="effect1_dropShadow_457_1374"/>
<feBlend mode="normal" in="SourceGraphic" in2="effect1_dropShadow_457_1374" result="shape"/>
</filter>
<filter id="filter4_d_457_1374" x="118" y="65" width="53" height="45" filterUnits="userSpaceOnUse" color-interpolation-filters="sRGB">
<feFlood flood-opacity="0" result="BackgroundImageFix"/>
<feColorMatrix in="SourceAlpha" type="matrix" values="0 0 0 0 0 0 0 0 0 0 0 0 0 0 0 0 0 0 127 0" result="hardAlpha"/>
<feMorphology radius="2" operator="dilate" in="SourceAlpha" result="effect1_dropShadow_457_1374"/>
<feOffset dy="6"/>
<feGaussianBlur stdDeviation="7.5"/>
<feComposite in2="hardAlpha" operator="out"/>
<feColorMatrix type="matrix" values="0 0 0 0 0.427451 0 0 0 0 0.552941 0 0 0 0 0.678431 0 0 0 0.15 0"/>
<feBlend mode="normal" in2="BackgroundImageFix" result="effect1_dropShadow_457_1374"/>
<feBlend mode="normal" in="SourceGraphic" in2="effect1_dropShadow_457_1374" result="shape"/>
</filter>
<filter id="filter5_d_457_1374" x="0" y="143" width="71" height="71" filterUnits="userSpaceOnUse" color-interpolation-filters="sRGB">
<feFlood flood-opacity="0" result="BackgroundImageFix"/>
<feColorMatrix in="SourceAlpha" type="matrix" values="0 0 0 0 0 0 0 0 0 0 0 0 0 0 0 0 0 0 127 0" result="hardAlpha"/>
<feMorphology radius="2" operator="dilate" in="SourceAlpha" result="effect1_dropShadow_457_1374"/>
<feOffset dy="6"/>
<feGaussianBlur stdDeviation="7.5"/>
<feComposite in2="hardAlpha" operator="out"/>
<feColorMatrix type="matrix" values="0 0 0 0 0.427451 0 0 0 0 0.552941 0 0 0 0 0.678431 0 0 0 0.15 0"/>
<feBlend mode="normal" in2="BackgroundImageFix" result="effect1_dropShadow_457_1374"/>
<feBlend mode="normal" in="SourceGraphic" in2="effect1_dropShadow_457_1374" result="shape"/>
</filter>
<filter id="filter6_d_457_1374" x="13" y="148" width="45" height="45" filterUnits="userSpaceOnUse" color-interpolation-filters="sRGB">
<feFlood flood-opacity="0" result="BackgroundImageFix"/>
<feColorMatrix in="SourceAlpha" type="matrix" values="0 0 0 0 0 0 0 0 0 0 0 0 0 0 0 0 0 0 127 0" result="hardAlpha"/>
<feMorphology radius="2" operator="dilate" in="SourceAlpha" result="effect1_dropShadow_457_1374"/>
<feOffset dy="6"/>
<feGaussianBlur stdDeviation="7.5"/>
<feComposite in2="hardAlpha" operator="out"/>
<feColorMatrix type="matrix" values="0 0 0 0 0.427451 0 0 0 0 0.552941 0 0 0 0 0.678431 0 0 0 0.15 0"/>
<feBlend mode="normal" in2="BackgroundImageFix" result="effect1_dropShadow_457_1374"/>
<feBlend mode="normal" in="SourceGraphic" in2="effect1_dropShadow_457_1374" result="shape"/>
</filter>
<filter id="filter7_d_457_1374" x="9" y="162" width="53" height="45" filterUnits="userSpaceOnUse" color-interpolation-filters="sRGB">
<feFlood flood-opacity="0" result="BackgroundImageFix"/>
<feColorMatrix in="SourceAlpha" type="matrix" values="0 0 0 0 0 0 0 0 0 0 0 0 0 0 0 0 0 0 127 0" result="hardAlpha"/>
<feMorphology radius="2" operator="dilate" in="SourceAlpha" result="effect1_dropShadow_457_1374"/>
<feOffset dy="6"/>
<feGaussianBlur stdDeviation="7.5"/>
<feComposite in2="hardAlpha" operator="out"/>
<feColorMatrix type="matrix" values="0 0 0 0 0.427451 0 0 0 0 0.552941 0 0 0 0 0.678431 0 0 0 0.15 0"/>
<feBlend mode="normal" in2="BackgroundImageFix" result="effect1_dropShadow_457_1374"/>
<feBlend mode="normal" in="SourceGraphic" in2="effect1_dropShadow_457_1374" result="shape"/>
</filter>
<filter id="filter8_d_457_1374" x="35" y="210" width="147" height="63" filterUnits="userSpaceOnUse" color-interpolation-filters="sRGB">
<feFlood flood-opacity="0" result="BackgroundImageFix"/>
<feColorMatrix in="SourceAlpha" type="matrix" values="0 0 0 0 0 0 0 0 0 0 0 0 0 0 0 0 0 0 127 0" result="hardAlpha"/>
<feMorphology radius="2" operator="dilate" in="SourceAlpha" result="effect1_dropShadow_457_1374"/>
<feOffset dy="6"/>
<feGaussianBlur stdDeviation="7.5"/>
<feComposite in2="hardAlpha" operator="out"/>
<feColorMatrix type="matrix" values="0 0 0 0 0.427451 0 0 0 0 0.552941 0 0 0 0 0.678431 0 0 0 0.15 0"/>
<feBlend mode="normal" in2="BackgroundImageFix" result="effect1_dropShadow_457_1374"/>
<feBlend mode="normal" in="SourceGraphic" in2="effect1_dropShadow_457_1374" result="shape"/>
</filter>
</defs>
</svg>

<svg width="182" height="273" fill="none" xmlns="http://www.w3.org/2000/svg"><rect x="40" y="2" width="137" height="268" rx="22" fill="#fff" stroke="#DDE1E6" stroke-width="4"/><path d="M75 2h66v7a7 7 0 0 1-7 7H82a7 7 0 0 1-7-7V2Z" fill="#DDE1E6"/><g filter="url(#a)"><rect width="96" height="48" rx="14" transform="matrix(-1 0 0 1 153 76)" fill="#fff"/></g><g filter="url(#b)"><rect width="96" height="23" rx="10" transform="matrix(-1 0 0 1 154 161)" fill="#fff"/></g><rect width="66" height="15" rx="7.5" transform="matrix(-1 0 0 1 144 200)" fill="#F2F4F8"/><g filter="url(#c)"><circle r="18.5" transform="matrix(-1 0 0 1 144.5 75.5)" fill="#fff"/></g><g filter="url(#d)"><circle r="5.5" transform="matrix(-1 0 0 1 144.5 67.5)" fill="#19E29E" fill-opacity=".4" shape-rendering="crispEdges"/></g><g filter="url(#e)"><ellipse rx="9.5" ry="5.5" transform="matrix(-1 0 0 1 144.5 81.5)" fill="#19E29E" fill-opacity=".4" shape-rendering="crispEdges"/></g><g filter="url(#f)"><circle r="18.5" transform="matrix(-1 0 0 1 35.5 172.5)" fill="#fff"/></g><g filter="url(#g)"><circle r="5.5" transform="matrix(-1 0 0 1 35.5 164.5)" fill="#04CCB3" fill-opacity=".3" shape-rendering="crispEdges"/></g><g filter="url(#h)"><ellipse rx="9.5" ry="5.5" transform="matrix(-1 0 0 1 35.5 178.5)" fill="#04CCB3" fill-opacity=".3" shape-rendering="crispEdges"/></g><g filter="url(#i)"><rect x="52" y="221" width="113" height="29" rx="14.5" fill="#fff"/></g><path d="M84.758 240v-7.506h2.724v-.949h-6.504v.949h2.725V240h1.055Zm4.002 2.285c1.119 0 1.623-.433 2.162-1.898l2.467-6.703h-1.073l-1.728 5.197h-.094l-1.734-5.197h-1.09l2.338 6.322-.117.375c-.264.762-.58 1.037-1.16 1.037a2.47 2.47 0 0 1-.422-.029v.861c.14.023.316.035.45.035Zm9.052-8.713c-.86 0-1.617.44-2.021 1.166h-.094v-1.054h-.96v8.425h1.007v-3.058h.094c.346.668 1.072 1.06 1.975 1.06 1.605 0 2.654-1.295 2.654-3.269 0-1.987-1.043-3.27-2.654-3.27Zm-.24 5.631c-1.136 0-1.857-.914-1.857-2.361 0-1.453.72-2.362 1.863-2.362 1.154 0 1.846.885 1.846 2.362 0 1.476-.692 2.361-1.852 2.361Zm6.996-4.74c1.002 0 1.67.738 1.694 1.857h-3.481c.076-1.119.78-1.857 1.787-1.857Zm1.664 3.902c-.263.557-.814.856-1.628.856-1.073 0-1.77-.791-1.823-2.039v-.047h4.541v-.387c0-1.963-1.037-3.176-2.742-3.176-1.734 0-2.848 1.289-2.848 3.276 0 1.998 1.096 3.263 2.848 3.263 1.383 0 2.356-.662 2.66-1.746h-1.008ZM112.35 240h1.007v-3.738c0-1.067.622-1.782 1.752-1.782.955 0 1.459.557 1.459 1.676V240h1.008v-4.09c0-1.482-.844-2.338-2.18-2.338-.966 0-1.628.41-1.945 1.108h-.094v-3.504h-1.007V240Zm9.586-5.537c1.002 0 1.669.738 1.693 1.857h-3.481c.077-1.119.78-1.857 1.788-1.857Zm1.664 3.902c-.264.557-.815.856-1.629.856-1.073 0-1.77-.791-1.823-2.039v-.047h4.541v-.387c0-1.963-1.037-3.176-2.742-3.176-1.734 0-2.847 1.289-2.847 3.276 0 1.998 1.095 3.263 2.847 3.263 1.383 0 2.356-.662 2.66-1.746H123.6Zm2.671 1.635h1.008v-3.914c0-.891.698-1.535 1.659-1.535.199 0 .562.035.644.058v-1.007a4.232 4.232 0 0 0-.504-.03c-.838 0-1.564.434-1.752 1.049h-.094v-.937h-.961V240Zm6.915-5.537c1.002 0 1.669.738 1.693 1.857h-3.481c.077-1.119.78-1.857 1.788-1.857Zm1.664 3.902c-.264.557-.815.856-1.629.856-1.073 0-1.77-.791-1.823-2.039v-.047h4.541v-.387c0-1.963-1.037-3.176-2.742-3.176-1.734 0-2.847 1.289-2.847 3.276 0 1.998 1.095 3.263 2.847 3.263 1.383 0 2.356-.662 2.66-1.746h-1.007Z" fill="#DDE1E6"/><path d="m162.334 53.5-4.584 4.583L155.667 56" stroke="#19E29E" stroke-width=".833" stroke-linecap="round" stroke-linejoin="round"/><path d="m165.667 53.5-4.584 4.583L159 56" stroke="#19E29E" stroke-width=".833" stroke-linecap="round" stroke-linejoin="round"/><defs><filter id="a" x="40" y="65" width="130" height="82" filterUnits="userSpaceOnUse" color-interpolation-filters="sRGB"><feFlood flood-opacity="0" result="BackgroundImageFix"/><feColorMatrix in="SourceAlpha" values="0 0 0 0 0 0 0 0 0 0 0 0 0 0 0 0 0 0 127 0" result="hardAlpha"/><feMorphology radius="2" operator="dilate" in="SourceAlpha" result="effect1_dropShadow_457_1374"/><feOffset dy="6"/><feGaussianBlur stdDeviation="7.5"/><feComposite in2="hardAlpha" operator="out"/><feColorMatrix values="0 0 0 0 0.427451 0 0 0 0 0.552941 0 0 0 0 0.678431 0 0 0 0.15 0"/><feBlend in2="BackgroundImageFix" result="effect1_dropShadow_457_1374"/><feBlend in="SourceGraphic" in2="effect1_dropShadow_457_1374" result="shape"/></filter><filter id="b" x="41" y="150" width="130" height="57" filterUnits="userSpaceOnUse" color-interpolation-filters="sRGB"><feFlood flood-opacity="0" result="BackgroundImageFix"/><feColorMatrix in="SourceAlpha" values="0 0 0 0 0 0 0 0 0 0 0 0 0 0 0 0 0 0 127 0" result="hardAlpha"/><feMorphology radius="2" operator="dilate" in="SourceAlpha" result="effect1_dropShadow_457_1374"/><feOffset dy="6"/><feGaussianBlur stdDeviation="7.5"/><feComposite in2="hardAlpha" operator="out"/><feColorMatrix values="0 0 0 0 0.427451 0 0 0 0 0.552941 0 0 0 0 0.678431 0 0 0 0.15 0"/><feBlend in2="BackgroundImageFix" result="effect1_dropShadow_457_1374"/><feBlend in="SourceGraphic" in2="effect1_dropShadow_457_1374" result="shape"/></filter><filter id="c" x="109" y="46" width="71" height="71" filterUnits="userSpaceOnUse" color-interpolation-filters="sRGB"><feFlood flood-opacity="0" result="BackgroundImageFix"/><feColorMatrix in="SourceAlpha" values="0 0 0 0 0 0 0 0 0 0 0 0 0 0 0 0 0 0 127 0" result="hardAlpha"/><feMorphology radius="2" operator="dilate" in="SourceAlpha" result="effect1_dropShadow_457_1374"/><feOffset dy="6"/><feGaussianBlur stdDeviation="7.5"/><feComposite in2="hardAlpha" operator="out"/><feColorMatrix values="0 0 0 0 0.427451 0 0 0 0 0.552941 0 0 0 0 0.678431 0 0 0 0.15 0"/><feBlend in2="BackgroundImageFix" result="effect1_dropShadow_457_1374"/><feBlend in="SourceGraphic" in2="effect1_dropShadow_457_1374" result="shape"/></filter><filter id="d" x="122" y="51" width="45" height="45" filterUnits="userSpaceOnUse" color-interpolation-filters="sRGB"><feFlood flood-opacity="0" result="BackgroundImageFix"/><feColorMatrix in="SourceAlpha" values="0 0 0 0 0 0 0 0 0 0 0 0 0 0 0 0 0 0 127 0" result="hardAlpha"/><feMorphology radius="2" operator="dilate" in="SourceAlpha" result="effect1_dropShadow_457_1374"/><feOffset dy="6"/><feGaussianBlur stdDeviation="7.5"/><feComposite in2="hardAlpha" operator="out"/><feColorMatrix values="0 0 0 0 0.427451 0 0 0 0 0.552941 0 0 0 0 0.678431 0 0 0 0.15 0"/><feBlend in2="BackgroundImageFix" result="effect1_dropShadow_457_1374"/><feBlend in="SourceGraphic" in2="effect1_dropShadow_457_1374" result="shape"/></filter><filter id="e" x="118" y="65" width="53" height="45" filterUnits="userSpaceOnUse" color-interpolation-filters="sRGB"><feFlood flood-opacity="0" result="BackgroundImageFix"/><feColorMatrix in="SourceAlpha" values="0 0 0 0 0 0 0 0 0 0 0 0 0 0 0 0 0 0 127 0" result="hardAlpha"/><feMorphology radius="2" operator="dilate" in="SourceAlpha" result="effect1_dropShadow_457_1374"/><feOffset dy="6"/><feGaussianBlur stdDeviation="7.5"/><feComposite in2="hardAlpha" operator="out"/><feColorMatrix values="0 0 0 0 0.427451 0 0 0 0 0.552941 0 0 0 0 0.678431 0 0 0 0.15 0"/><feBlend in2="BackgroundImageFix" result="effect1_dropShadow_457_1374"/><feBlend in="SourceGraphic" in2="effect1_dropShadow_457_1374" result="shape"/></filter><filter id="f" x="0" y="143" width="71" height="71" filterUnits="userSpaceOnUse" color-interpolation-filters="sRGB"><feFlood flood-opacity="0" result="BackgroundImageFix"/><feColorMatrix in="SourceAlpha" values="0 0 0 0 0 0 0 0 0 0 0 0 0 0 0 0 0 0 127 0" result="hardAlpha"/><feMorphology radius="2" operator="dilate" in="SourceAlpha" result="effect1_dropShadow_457_1374"/><feOffset dy="6"/><feGaussianBlur stdDeviation="7.5"/><feComposite in2="hardAlpha" operator="out"/><feColorMatrix values="0 0 0 0 0.427451 0 0 0 0 0.552941 0 0 0 0 0.678431 0 0 0 0.15 0"/><feBlend in2="BackgroundImageFix" result="effect1_dropShadow_457_1374"/><feBlend in="SourceGraphic" in2="effect1_dropShadow_457_1374" result="shape"/></filter><filter id="g" x="13" y="148" width="45" height="45" filterUnits="userSpaceOnUse" color-interpolation-filters="sRGB"><feFlood flood-opacity="0" result="BackgroundImageFix"/><feColorMatrix in="SourceAlpha" values="0 0 0 0 0 0 0 0 0 0 0 0 0 0 0 0 0 0 127 0" result="hardAlpha"/><feMorphology radius="2" operator="dilate" in="SourceAlpha" result="effect1_dropShadow_457_1374"/><feOffset dy="6"/><feGaussianBlur stdDeviation="7.5"/><feComposite in2="hardAlpha" operator="out"/><feColorMatrix values="0 0 0 0 0.427451 0 0 0 0 0.552941 0 0 0 0 0.678431 0 0 0 0.15 0"/><feBlend in2="BackgroundImageFix" result="effect1_dropShadow_457_1374"/><feBlend in="SourceGraphic" in2="effect1_dropShadow_457_1374" result="shape"/></filter><filter id="h" x="9" y="162" width="53" height="45" filterUnits="userSpaceOnUse" color-interpolation-filters="sRGB"><feFlood flood-opacity="0" result="BackgroundImageFix"/><feColorMatrix in="SourceAlpha" values="0 0 0 0 0 0 0 0 0 0 0 0 0 0 0 0 0 0 127 0" result="hardAlpha"/><feMorphology radius="2" operator="dilate" in="SourceAlpha" result="effect1_dropShadow_457_1374"/><feOffset dy="6"/><feGaussianBlur stdDeviation="7.5"/><feComposite in2="hardAlpha" operator="out"/><feColorMatrix values="0 0 0 0 0.427451 0 0 0 0 0.552941 0 0 0 0 0.678431 0 0 0 0.15 0"/><feBlend in2="BackgroundImageFix" result="effect1_dropShadow_457_1374"/><feBlend in="SourceGraphic" in2="effect1_dropShadow_457_1374" result="shape"/></filter><filter id="i" x="35" y="210" width="147" height="63" filterUnits="userSpaceOnUse" color-interpolation-filters="sRGB"><feFlood flood-opacity="0" result="BackgroundImageFix"/><feColorMatrix in="SourceAlpha" values="0 0 0 0 0 0 0 0 0 0 0 0 0 0 0 0 0 0 127 0" result="hardAlpha"/><feMorphology radius="2" operator="dilate" in="SourceAlpha" result="effect1_dropShadow_457_1374"/><feOffset dy="6"/><feGaussianBlur stdDeviation="7.5"/><feComposite in2="hardAlpha" operator="out"/><feColorMatrix values="0 0 0 0 0.427451 0 0 0 0 0.552941 0 0 0 0 0.678431 0 0 0 0.15 0"/><feBlend in2="BackgroundImageFix" result="effect1_dropShadow_457_1374"/><feBlend in="SourceGraphic" in2="effect1_dropShadow_457_1374" result="shape"/></filter></defs></svg>
